X:1
T: Lady Doune
C:Nathaniel Gow
R:Strathspey
Q: 128
K:Cm
M:4/4
L:1/16
|:e2|B2e2 g3e f2d2 d3f|ec3 c2de B2G2 G3c|B2e2 g3e f2d2 d2f2|e3c cBAG F4 F2e2|
B2e2 g3e f2d2 d3f|ec3 c2de B2G2 G3c|B2e2 g3e f2d2 d2f2|e3c cBAG F4 F2c2|
B2E2 G3E F4 F2c2|B2G2 G3A B2G2 G3e|B2E2 G3E F4 F2c2|B2G2 G3B c4 c2de|
B2E2 G3E F4 F2c2|B2c2 G3A B2c2 G3e|B2E2 G3E F4 F2GA|B2cd e2B2 c4 c2:|
